assets/images/home.svg

<svg width="48" height="48" viewBox="0 0 48 48" fill="none" xmlns="http://www.w3.org/2000/svg">
<circle cx="24" cy="24" r="23.5" fill="white" stroke="#022F45"/>
<g clip-path="url(#clip0_54_9687)">
<path d="M12.2605 25.0869V19.8695L13.0431 17.7825C13.8257 17.1738 15.4431 15.9043 15.6518 15.6956C15.8605 15.4869 18.3474 12.826 19.5648 11.5217C20.3474 10.739 21.9648 9.17383 22.1735 9.17383H24.5213L34.6953 17.2608C34.7822 17.6086 35.0605 18.513 35.4779 19.3477C35.9996 20.3912 35.4779 20.913 35.4779 21.4347V24.0434V25.6086C35.4779 25.8173 35.8257 27.2608 35.9996 27.9564C35.6518 29.7825 34.9561 33.5912 34.9561 34.2173C34.9561 34.9999 34.6953 34.9999 34.6953 35.5217V36.0434C34.1735 36.3912 33.0257 37.0347 32.6083 36.826C32.0866 36.5651 31.304 36.826 30.5213 36.5651C29.7387 36.3043 29.7387 36.5651 29.217 36.5651H28.4344C28.1735 36.5651 28.1735 36.0434 28.1735 35.2608V35.2608C28.1735 34.4782 27.9126 34.9999 27.9126 34.2173V32.6521V31.3477C27.9126 30.826 27.9126 30.826 27.6518 30.3043C27.3909 29.7825 27.3909 29.5217 27.13 28.9999C26.8692 28.4782 26.6083 28.9999 26.3474 28.9999C26.0866 28.9999 26.0866 28.739 24.7822 28.2173C24.2605 28.2173 24.2605 27.9564 23.7387 27.9564H22.9561C22.6953 27.9564 21.9126 28.2173 21.6518 28.2173C21.3909 28.2173 21.3909 28.739 20.8692 29.7825C20.6083 30.5651 20.0866 31.8695 20.0866 32.6521C20.0866 33.4347 19.8257 33.6956 19.5648 34.2173C19.304 34.739 19.304 35.5217 19.304 35.7825C19.304 35.9912 18.9561 36.3912 18.7822 36.5651H17.4779H16.4344C15.9126 36.5651 15.13 36.3043 14.6083 36.0434L13.0431 35.2608C12.5213 34.9999 12.2605 33.9564 12.2605 33.6956C12.2605 33.4347 11.9996 32.1304 12.2605 31.6086C12.5213 31.0869 12.2605 29.5217 12.2605 28.9999V25.0869Z" fill="#FEB703"/>
<path d="M31.8065 37.6085H29.3412C28.702 37.6085 28.0888 37.3546 27.6368 36.9025C27.1848 36.4505 26.9308 35.8374 26.9308 35.1981V31.7468C26.9308 31.3619 26.855 30.9808 26.7077 30.6252C26.5604 30.2696 26.3445 29.9465 26.0724 29.6744C25.8002 29.4022 25.4771 29.1863 25.1215 29.039C24.7659 28.8917 24.3848 28.8159 23.9999 28.8159C23.615 28.8159 23.2339 28.8917 22.8783 29.039C22.5227 29.1863 22.1997 29.4022 21.9275 29.6744C21.6553 29.9465 21.4395 30.2696 21.2922 30.6252C21.1449 30.9808 21.0691 31.3619 21.0691 31.7468V35.189C21.0703 35.5063 21.0088 35.8207 20.8882 36.1142C20.7676 36.4077 20.5903 36.6745 20.3663 36.8993C20.1424 37.1241 19.8762 37.3025 19.5832 37.4242C19.2901 37.5459 18.9759 37.6085 18.6586 37.6085H16.1934C14.8979 37.6085 13.6554 37.0939 12.7393 36.1778C11.8233 35.2617 11.3086 34.0193 11.3086 32.7237V19.7768C11.3059 19.0638 11.4599 18.359 11.7597 17.7121C12.0594 17.0652 12.4977 16.4921 13.0434 16.0333L20.8499 9.52331C21.7278 8.79175 22.8344 8.39111 23.9771 8.39111C25.1198 8.39111 26.2264 8.79175 27.1043 9.52331L34.9565 16.0333C35.5067 16.4914 35.9491 17.0652 36.2521 17.7138C36.5552 18.3625 36.7113 19.07 36.7095 19.7859V32.7237C36.7095 33.3668 36.5826 34.0035 36.3359 34.5973C36.0893 35.1911 35.7279 35.7304 35.2723 36.1843C34.8168 36.6381 34.2761 36.9975 33.6814 37.242C33.0866 37.4864 32.4495 37.6109 31.8065 37.6085ZM23.9999 26.8711C25.2955 26.8711 26.5379 27.3858 27.454 28.3019C28.3701 29.2179 28.8847 30.4604 28.8847 31.7559V35.1981C28.8847 35.3192 28.9328 35.4353 29.0184 35.5209C29.104 35.6065 29.2202 35.6546 29.3412 35.6546H31.8156C32.5929 35.6546 33.3384 35.3458 33.888 34.7962C34.4377 34.2465 34.7465 33.5011 34.7465 32.7237V19.7768C34.7471 19.3461 34.6524 18.9205 34.4693 18.5306C34.2862 18.1407 34.0192 17.7962 33.6873 17.5216L25.8717 11.0207C25.3449 10.5818 24.681 10.3414 23.9954 10.3414C23.3097 10.3414 22.6458 10.5818 22.1191 11.0207L14.3125 17.5216C13.9835 17.7961 13.7189 18.1396 13.5375 18.5277C13.356 18.9159 13.2622 19.3392 13.2625 19.7677V32.7237C13.2625 33.1086 13.3384 33.4898 13.4856 33.8453C13.6329 34.2009 13.8488 34.524 14.121 34.7962C14.3931 35.0683 14.7162 35.2842 15.0718 35.4315C15.4274 35.5788 15.8085 35.6546 16.1934 35.6546H18.6586C18.779 35.6523 18.8937 35.6034 18.9789 35.5183C19.064 35.4332 19.1128 35.3184 19.1152 35.1981V31.7468C19.1176 30.4528 19.6333 29.2127 20.5491 28.2986C21.4649 27.3845 22.706 26.8711 23.9999 26.8711Z" fill="#022F45"/>
</g>
<defs>
<clipPath id="clip0_54_9687">
<rect width="29.2174" height="29.2174" fill="white" transform="translate(9.3916 8.39111)"/>
</clipPath>
</defs>
</svg>

<svg width="48" height="48" fill="none" xmlns="http://www.w3.org/2000/svg"><circle cx="24" cy="24" r="23.5" fill="#fff" stroke="#022F45"/><g clip-path="url(#a)"><path d="M12.26 25.087v-5.218l.783-2.087c.783-.608 2.4-1.878 2.609-2.086a781.14 781.14 0 0 0 3.913-4.174c.782-.783 2.4-2.348 2.608-2.348h2.348l10.174 8.087c.087.348.365 1.252.783 2.087.522 1.043 0 1.565 0 2.087v4.174c0 .208.348 1.652.522 2.347-.348 1.826-1.044 5.635-1.044 6.261 0 .783-.26.783-.26 1.305v.521c-.523.348-1.67.992-2.088.783-.521-.26-1.304 0-2.087-.26-.782-.262-.782 0-1.304 0h-.783c-.26 0-.26-.523-.26-1.305 0-.783-.261-.261-.261-1.044V31.348c0-.522 0-.522-.261-1.044-.261-.521-.261-.782-.522-1.304-.26-.522-.522 0-.783 0-.26 0-.26-.261-1.565-.783-.521 0-.521-.26-1.043-.26h-.783c-.26 0-1.043.26-1.304.26-.261 0-.261.522-.783 1.566-.26.782-.782 2.086-.782 2.87 0 .782-.261 1.043-.522 1.564-.261.522-.261 1.305-.261 1.566 0 .208-.348.608-.522.782h-2.348c-.521 0-1.304-.26-1.826-.522l-1.565-.782c-.522-.261-.782-1.305-.782-1.565 0-.261-.261-1.566 0-2.087.26-.522 0-2.087 0-2.61v-3.912Z" fill="#FEB703"/><path d="M31.806 37.608h-2.465a2.41 2.41 0 0 1-2.41-2.41v-3.451a2.93 2.93 0 1 0-5.862 0v3.442a2.41 2.41 0 0 1-2.41 2.42h-2.466a4.885 4.885 0 0 1-4.884-4.885V19.777a4.866 4.866 0 0 1 1.734-3.744l7.807-6.51a4.885 4.885 0 0 1 6.254 0l7.852 6.51a4.868 4.868 0 0 1 1.753 3.753v12.938a4.883 4.883 0 0 1-4.903 4.885ZM24 26.871a4.885 4.885 0 0 1 4.885 4.885v3.442a.456.456 0 0 0 .456.457h2.475a2.93 2.93 0 0 0 2.93-2.931V19.777a2.922 2.922 0 0 0-1.059-2.255l-7.815-6.501a2.931 2.931 0 0 0-3.753 0l-7.806 6.5a2.921 2.921 0 0 0-1.05 2.247v12.956a2.932 2.932 0 0 0 2.93 2.93h2.466a.466.466 0 0 0 .456-.456v-3.451A4.885 4.885 0 0 1 24 26.87Z" fill="#022F45"/></g><defs><clipPath id="a"><path fill="#fff" transform="translate(9.392 8.391)" d="M0 0h29.217v29.217H0z"/></clipPath></defs></svg>
